src/svg/mail-read.svg

<svg height="16" width="14" xmlns="http://www.w3.org/2000/svg" viewBox="0 0 14 16">
  <path d="M6 5H4v-1h2v1z m3 1H4v1h5v-1z m5-0.48v8.48c0 0.55-0.45 1-1 1H1c-0.55 0-1-0.45-1-1V5.52c0-0.33 0.16-0.63 0.42-0.81l1.58-1.13v-0.58c0-0.55 0.45-1 1-1h1.2L7 0l2.8 2h1.2c0.55 0 1 0.45 1 1v0.58l1.58 1.13c0.27 0.19 0.42 0.48 0.42 0.81zM3 7.5l4 2.5 4-2.5V3H3v4.5zM1 13.5l4.5-3L1 7.5v6z m11 0.5L7 11 2 14h10z m1-6.5L8.5 10.5l4.5 3V7.5z" />
</svg>

<?xml version="1.0" encoding="UTF-8" standalone="no"?>
<svg width="14px" height="16px" viewBox="0 0 14 16" version="1.1" xmlns="http://www.w3.org/2000/svg" xmlns:xlink="http://www.w3.org/1999/xlink">
    <!-- Generator: Sketch 3.7.1 (28215) - http://www.bohemiancoding.com/sketch -->
    <title>mail-read</title>
    <desc>Created with Sketch.</desc>
    <defs></defs>
    <g id="Octicons" stroke="none" stroke-width="1" fill="none" fill-rule="evenodd">
        <g id="mail-read" fill="#000000">
            <path d="M6,5 L4,5 L4,4 L6,4 L6,5 L6,5 Z M9,6 L4,6 L4,7 L9,7 L9,6 L9,6 Z M14,5.52 L14,14 C14,14.55 13.55,15 13,15 L1,15 C0.45,15 0,14.55 0,14 L0,5.52 C0,5.19 0.16,4.89 0.42,4.71 L2,3.58 L2,3 C2,2.45 2.45,2 3,2 L4.2,2 L7,0 L9.8,2 L11,2 C11.55,2 12,2.45 12,3 L12,3.58 L13.58,4.71 C13.85,4.9 14,5.19 14,5.52 L14,5.52 Z M3,7.5 L7,10 L11,7.5 L11,3 L3,3 L3,7.5 L3,7.5 Z M1,13.5 L5.5,10.5 L1,7.5 L1,13.5 L1,13.5 Z M12,14 L7,11 L2,14 L12,14 L12,14 Z M13,7.5 L8.5,10.5 L13,13.5 L13,7.5 L13,7.5 Z" id="Shape"></path>
        </g>
    </g>
</svg>
